X: 28978
T: Nar Dagsmilda Kjem
R: waltz
M: 3/4
K: Dmajor
A>d|:d<f f>A d>f|f<e e>A c>e|B<d d>e (3fed|B3 A A>G|
F>A A>F Ad|B3 A G2|G>F (3FED GF|F2 AE (3Ace|
f2 f>A d<f|f<e e>A c<e|d3 e f>d|B3 A A>G|
F<A A>F A<d|B2 g>f e>d|c<d e>d d<c|1 d4 (3Ade:|2 d4 (3dfa||
|:g2 b>g e<d|c3 d e2|f2 a>f a<f|d3 B A2|
G3 A Bd|g3 f ed|e3 d (3dcB|A4 f>a|
g2 b>g e<d|c2 d2 e2|f2 a>f a<f|d4 B>A|
G3 A B>d|g3 f e>d|c>d e>d d<c|1 d4 (3dfa:|2 d6||

